X: 9
T: King Of The Pipers
Z: Erik-Fiddler
S: https://thesession.org/tunes/54#setting52104
R: jig
M: 6/8
L: 1/8
K: Dmix
B|:{d}cAG ABA|DED GAB|{d}cAG ABA|DD/D/D GED|
{d}cAG ABA|DED GFE|~F(3F/E/F/F ~E(3E/D/E/E|1DEF GED:|2DEF G A/B/^c||
|:[D2d2] e fdf|e^cA {B}AFA|~d(3d/c/d/d efg|f/g/af {a}=ge^c|
d2 e fdf|e^cA {B}AGE|~F(3F/E/F/F ~E(3E/D/E/E|DEF GED:|
|:[D3B3] AGA|BGE Edc|~B(3B/A/B/B AGE|GED {E}D2 A|
~B(3B/A/B/B AGA|BGE Ee^c|{e}d^cd ABG|1 FDD {E}Ddc:|2 FDD {E}D2||

%-------------------- TUNE SEPARATOR --------------------%

